icons/arduino/arduino-plain-wordmark.svg

<?xml version="1.0" encoding="UTF-8"?>
<svg xmlns="http://www.w3.org/2000/svg" xmlns:xlink="http://www.w3.org/1999/xlink" width="128px" height="128px" viewBox="0 0 128 128" version="1.1">
<g>
<path style="stroke:none;fill-rule:evenodd;fill-opacity:1;" d="M 0.316406 55.503906 L 0.316406 45.949219 C 0.539062 45.824219 0.480469 45.59375 0.523438 45.402344 C 3.53125 32.316406 11.734375 24.449219 24.667969 21.308594 C 25.800781 21.035156 26.988281 21.0625 28.089844 20.65625 L 34.460938 20.65625 C 34.605469 20.929688 34.875 20.820312 35.089844 20.84375 C 41.511719 21.53125 47.292969 23.800781 52.40625 27.757812 C 56.769531 31.128906 60.246094 35.304688 63.34375 39.816406 C 63.726562 40.375 63.910156 40.390625 64.296875 39.820312 C 66.070312 37.210938 68.003906 34.722656 70.15625 32.410156 C 75.507812 26.671875 81.863281 22.714844 89.667969 21.265625 C 90.839844 21.046875 92.050781 21.058594 93.1875 20.65625 L 99.378906 20.65625 C 99.507812 20.886719 99.738281 20.8125 99.933594 20.835938 C 101.777344 21.042969 103.597656 21.382812 105.386719 21.898438 C 118.835938 25.761719 128.320312 38.082031 127.523438 52.03125 C 126.855469 63.675781 120.960938 72.0625 110.742188 77.449219 C 105.585938 80.167969 99.992188 80.9375 94.21875 80.824219 C 86.59375 80.675781 79.964844 78.054688 74.25 73.050781 C 70.285156 69.582031 67.167969 65.410156 64.304688 61.035156 C 63.878906 60.382812 63.714844 60.464844 63.332031 61.054688 C 61.519531 63.84375 59.574219 66.546875 57.371094 69.054688 C 53.503906 73.460938 49.035156 77.054688 43.441406 79.015625 C 36.527344 81.4375 29.476562 81.53125 22.488281 79.554688 C 12.414062 76.707031 5.46875 70.300781 1.722656 60.480469 C 1.105469 58.863281 0.847656 57.144531 0.316406 55.503906 Z M 32.105469 70.1875 C 37.839844 70.425781 42.726562 68.5 46.871094 64.644531 C 51.195312 60.621094 54.253906 55.640625 57.359375 50.699219 C 57.546875 50.402344 57.488281 50.167969 57.308594 49.890625 C 54.664062 45.769531 51.953125 41.6875 48.375 38.289062 C 41.492188 31.746094 33.382812 29.546875 24.335938 32.4375 C 16.777344 34.855469 12 40.234375 10.882812 48.21875 C 9.839844 55.664062 12.738281 61.675781 18.695312 66.160156 C 22.660156 69.148438 27.226562 70.324219 32.105469 70.1875 Z M 95.453125 70.1875 C 97.699219 70.246094 99.910156 70.097656 102.042969 69.457031 C 109.863281 67.125 115.148438 62.164062 116.621094 54.027344 C 118.089844 45.921875 114.953125 39.433594 108.230469 34.800781 C 100.738281 29.632812 89.816406 30.140625 82.175781 35.824219 C 77.101562 39.597656 73.652344 44.734375 70.300781 49.957031 C 70.105469 50.257812 70.15625 50.488281 70.328125 50.761719 C 73.015625 55.0625 75.707031 59.359375 79.191406 63.085938 C 83.597656 67.800781 88.894531 70.480469 95.453125 70.1875 Z M 95.453125 70.1875 "/>
<path style="stroke:none;fill-rule:evenodd;fill-opacity:1;" d="M 127.679688 99.195312 C 127.382812 100.136719 127.144531 101.097656 126.785156 102.015625 C 124.550781 107.695312 116.5625 109.21875 112.730469 104.699219 C 111.425781 103.160156 110.851562 101.3125 110.632812 99.351562 C 110.328125 96.609375 110.335938 93.886719 111.367188 91.253906 C 112.824219 87.558594 115.976562 85.640625 120.121094 85.953125 C 123.898438 86.238281 126.410156 88.492188 127.308594 92.386719 C 127.425781 92.886719 127.367188 93.433594 127.679688 93.886719 Z M 115.0625 96.585938 C 115.066406 98.09375 115.148438 99.59375 115.683594 101.023438 C 116.089844 102.128906 116.769531 102.964844 117.976562 103.277344 C 120.132812 103.835938 121.902344 102.949219 122.558594 100.804688 C 123.402344 98.035156 123.363281 95.214844 122.566406 92.441406 C 122.050781 90.632812 120.960938 89.839844 119.25 89.808594 C 117.421875 89.773438 116.289062 90.554688 115.632812 92.316406 C 115.121094 93.695312 115.070312 95.140625 115.0625 96.585938 Z M 115.0625 96.585938 "/>
<path style="stroke:none;fill-rule:evenodd;fill-opacity:1;" d="M 97.308594 93.445312 L 97.308594 105.722656 C 97.308594 106.933594 97.308594 106.933594 96.054688 106.933594 C 95.4375 106.933594 94.816406 106.890625 94.199219 106.945312 C 93.507812 107.007812 93.292969 106.765625 93.300781 106.0625 C 93.332031 102.4375 93.316406 98.8125 93.316406 95.1875 C 93.316406 92.476562 93.335938 89.765625 93.304688 87.054688 C 93.296875 86.4375 93.472656 86.238281 94.09375 86.261719 C 95.300781 86.308594 96.511719 86.3125 97.71875 86.257812 C 98.320312 86.234375 98.601562 86.449219 98.84375 86.976562 C 100.730469 91.066406 102.644531 95.140625 104.554688 99.21875 C 104.601562 99.316406 104.667969 99.410156 104.863281 99.734375 L 104.863281 98.679688 C 104.863281 94.820312 104.878906 90.960938 104.847656 87.101562 C 104.84375 86.453125 104.992188 86.210938 105.671875 86.261719 C 106.523438 86.324219 107.378906 86.296875 108.234375 86.269531 C 108.714844 86.25 108.90625 86.386719 108.90625 86.90625 C 108.890625 93.359375 108.894531 99.816406 108.90625 106.269531 C 108.90625 106.757812 108.761719 106.949219 108.253906 106.941406 C 106.929688 106.917969 105.601562 106.910156 104.273438 106.945312 C 103.730469 106.960938 103.589844 106.628906 103.410156 106.242188 C 101.539062 102.179688 99.65625 98.121094 97.769531 94.066406 C 97.675781 93.867188 97.664062 93.601562 97.308594 93.445312 Z M 97.308594 93.445312 "/>
<path style="stroke:none;fill-rule:evenodd;fill-opacity:1;" d="M 31.8125 97.144531 C 33.328125 98.363281 33.929688 100.050781 34.726562 101.617188 C 35.496094 103.136719 36.226562 104.679688 37 106.199219 C 37.261719 106.71875 37.3125 106.972656 36.574219 106.945312 C 35.34375 106.902344 34.101562 106.910156 32.867188 106.945312 C 32.367188 106.960938 32.144531 106.753906 31.953125 106.320312 C 31.089844 104.355469 30.1875 102.40625 29.304688 100.449219 C 28.820312 99.375 28.050781 98.71875 26.84375 98.550781 C 26.128906 98.453125 25.941406 98.679688 25.953125 99.386719 C 25.996094 101.625 25.945312 103.863281 25.984375 106.101562 C 25.996094 106.757812 25.824219 106.988281 25.152344 106.949219 C 24.210938 106.890625 23.265625 106.914062 22.324219 106.941406 C 21.824219 106.953125 21.578125 106.839844 21.578125 106.265625 C 21.597656 99.8125 21.589844 93.363281 21.59375 86.910156 C 21.59375 86.628906 21.519531 86.265625 21.984375 86.28125 C 25.128906 86.382812 28.296875 85.949219 31.410156 86.648438 C 35.6875 87.609375 36.226562 91.222656 35.457031 93.894531 C 34.953125 95.648438 33.597656 96.605469 31.8125 97.144531 Z M 25.972656 92.433594 C 25.972656 93.171875 25.972656 93.90625 25.972656 94.640625 C 25.972656 94.882812 25.964844 95.132812 26.3125 95.132812 C 27.515625 95.144531 28.734375 95.230469 29.851562 94.636719 C 30.863281 94.097656 31.28125 93.210938 31.132812 91.972656 C 31.011719 90.960938 30.453125 90.332031 29.328125 90.078125 C 28.699219 89.933594 28.046875 89.863281 27.402344 89.855469 C 25.632812 89.835938 26.015625 89.691406 25.972656 91.199219 C 25.960938 91.609375 25.972656 92.023438 25.972656 92.433594 Z M 25.972656 92.433594 "/>
<path style="stroke:none;fill-rule:evenodd;fill-opacity:1;" d="M 38.988281 96.582031 C 38.988281 93.457031 39.007812 90.335938 38.972656 87.210938 C 38.964844 86.507812 39.109375 86.226562 39.882812 86.261719 C 42.382812 86.363281 44.894531 86.105469 47.386719 86.410156 C 52.121094 86.992188 54.5625 89.464844 55.09375 94.261719 C 55.355469 96.589844 55.269531 98.914062 54.433594 101.152344 C 53.117188 104.664062 50.367188 106.28125 46.832031 106.769531 C 44.433594 107.097656 42.007812 106.886719 39.589844 106.941406 C 38.941406 106.957031 38.988281 106.554688 38.988281 106.128906 C 38.988281 102.945312 38.988281 99.765625 38.988281 96.582031 Z M 43.335938 96.566406 L 43.335938 101.332031 C 43.335938 103.371094 43.335938 103.371094 45.414062 103.285156 C 47.992188 103.175781 49.636719 101.851562 50.246094 99.332031 C 50.734375 97.324219 50.683594 95.300781 50.183594 93.304688 C 49.683594 91.320312 48.371094 90.210938 46.320312 89.980469 C 45.59375 89.898438 44.851562 89.925781 44.121094 89.859375 C 43.5 89.800781 43.3125 90.039062 43.324219 90.65625 C 43.359375 92.625 43.335938 94.597656 43.335938 96.566406 Z M 43.335938 96.566406 "/>
<path style="stroke:none;fill-rule:evenodd;fill-opacity:1;" d="M 17.496094 106.941406 C 15.128906 106.941406 15.128906 106.941406 14.492188 104.703125 C 13.984375 102.921875 13.984375 102.921875 12.128906 102.921875 C 10.652344 102.921875 9.179688 102.949219 7.707031 102.910156 C 7.160156 102.894531 6.929688 103.078125 6.800781 103.601562 C 6.578125 104.515625 6.238281 105.402344 6.015625 106.316406 C 5.890625 106.824219 5.632812 106.964844 5.144531 106.949219 C 4.175781 106.917969 3.199219 106.910156 2.230469 106.949219 C 1.570312 106.976562 1.507812 106.765625 1.6875 106.179688 C 3.160156 101.429688 4.605469 96.671875 6.058594 91.914062 C 6.558594 90.285156 7.082031 88.660156 7.550781 87.019531 C 7.699219 86.492188 7.902344 86.246094 8.5 86.265625 C 10.003906 86.3125 11.507812 86.296875 13.007812 86.273438 C 13.46875 86.265625 13.671875 86.414062 13.808594 86.867188 C 15.769531 93.3125 17.75 99.753906 19.738281 106.191406 C 19.914062 106.761719 19.828125 107.003906 19.175781 106.949219 C 18.621094 106.902344 18.058594 106.941406 17.496094 106.941406 Z M 10.628906 91.28125 C 10.566406 91.285156 10.507812 91.289062 10.445312 91.292969 C 9.667969 93.964844 8.886719 96.632812 8.109375 99.304688 C 8.246094 99.34375 8.300781 99.375 8.359375 99.375 C 9.300781 99.382812 10.242188 99.390625 11.183594 99.390625 C 12.988281 99.394531 12.992188 99.390625 12.496094 97.691406 C 11.875 95.554688 11.25 93.414062 10.628906 91.28125 Z M 10.628906 91.28125 "/>
<path style="stroke:none;fill-rule:evenodd;fill-opacity:1;" d="M 57.074219 93.964844 C 57.074219 91.636719 57.085938 89.308594 57.0625 86.976562 C 57.058594 86.460938 57.183594 86.238281 57.746094 86.265625 C 58.71875 86.308594 59.695312 86.316406 60.664062 86.261719 C 61.316406 86.226562 61.441406 86.492188 61.4375 87.078125 C 61.417969 91 61.425781 94.921875 61.433594 98.84375 C 61.433594 99.519531 61.453125 100.199219 61.523438 100.871094 C 61.710938 102.71875 62.804688 103.652344 64.8125 103.710938 C 66.824219 103.773438 67.960938 102.902344 68.234375 101.039062 C 68.335938 100.371094 68.371094 99.6875 68.375 99.015625 C 68.390625 95.09375 68.398438 91.171875 68.363281 87.253906 C 68.359375 86.515625 68.488281 86.183594 69.316406 86.257812 C 70.222656 86.339844 71.144531 86.296875 72.054688 86.269531 C 72.535156 86.253906 72.738281 86.382812 72.734375 86.902344 C 72.703125 91.382812 72.78125 95.867188 72.652344 100.34375 C 72.542969 104.234375 70.007812 106.753906 66.109375 107.1875 C 64.445312 107.375 62.808594 107.28125 61.21875 106.753906 C 58.667969 105.902344 57.210938 103.851562 57.113281 100.859375 C 57.042969 98.5625 57.101562 96.261719 57.101562 93.964844 Z M 57.074219 93.964844 "/>
<path style="stroke:none;fill-rule:evenodd;fill-opacity:1;" d="M 82.96875 86.277344 C 85.003906 86.277344 87.035156 86.296875 89.070312 86.261719 C 89.644531 86.253906 89.855469 86.421875 89.816406 87.007812 C 89.773438 87.710938 89.773438 88.421875 89.816406 89.125 C 89.851562 89.6875 89.625 89.832031 89.101562 89.816406 C 88.039062 89.78125 86.980469 89.824219 85.917969 89.796875 C 85.421875 89.78125 85.183594 89.878906 85.183594 90.460938 C 85.207031 94.527344 85.203125 98.59375 85.1875 102.660156 C 85.183594 103.203125 85.355469 103.386719 85.894531 103.367188 C 86.953125 103.339844 88.015625 103.390625 89.074219 103.347656 C 89.675781 103.328125 89.84375 103.558594 89.816406 104.121094 C 89.777344 104.855469 89.785156 105.59375 89.8125 106.328125 C 89.832031 106.800781 89.636719 106.9375 89.191406 106.9375 C 85.066406 106.925781 80.941406 106.925781 76.8125 106.9375 C 76.320312 106.941406 76.121094 106.785156 76.140625 106.28125 C 76.164062 105.546875 76.171875 104.804688 76.136719 104.070312 C 76.113281 103.539062 76.289062 103.335938 76.839844 103.351562 C 77.929688 103.382812 79.019531 103.34375 80.109375 103.363281 C 80.609375 103.375 80.769531 103.1875 80.765625 102.691406 C 80.753906 98.597656 80.753906 94.5 80.765625 90.402344 C 80.765625 89.941406 80.601562 89.789062 80.148438 89.796875 C 79.058594 89.820312 77.964844 89.773438 76.878906 89.816406 C 76.28125 89.839844 76.089844 89.621094 76.140625 89.054688 C 76.226562 88.15625 75.765625 87.011719 76.339844 86.421875 C 76.839844 85.910156 77.964844 86.292969 78.816406 86.277344 C 80.195312 86.261719 81.585938 86.277344 82.96875 86.277344 Z M 82.96875 86.277344 "/>
<path style="stroke:none;fill-rule:evenodd;fill-opacity:1;" d="M 124.851562 24.476562 C 124.71875 24.675781 124.671875 24.742188 124.628906 24.808594 C 124.386719 25.171875 124.574219 25.90625 123.964844 25.894531 C 123.425781 25.882812 123.5625 25.210938 123.371094 24.84375 C 123.320312 24.746094 123.261719 24.65625 123.09375 24.382812 C 123.09375 24.886719 123.101562 25.171875 123.09375 25.460938 C 123.085938 25.65625 123.128906 25.902344 122.820312 25.917969 C 122.507812 25.933594 122.527344 25.683594 122.523438 25.488281 C 122.515625 24.808594 122.515625 24.132812 122.519531 23.457031 C 122.519531 23.226562 122.484375 22.960938 122.84375 22.953125 C 123.113281 22.949219 123.347656 22.9375 123.460938 23.289062 C 123.605469 23.71875 123.65625 24.199219 123.988281 24.613281 C 124.304688 24.210938 124.359375 23.746094 124.480469 23.320312 C 124.582031 22.972656 124.796875 22.949219 125.078125 22.949219 C 125.433594 22.953125 125.417969 23.203125 125.421875 23.4375 C 125.425781 24.117188 125.425781 24.792969 125.417969 25.472656 C 125.414062 25.664062 125.441406 25.917969 125.136719 25.921875 C 124.832031 25.921875 124.855469 25.679688 124.851562 25.480469 C 124.84375 25.191406 124.851562 24.90625 124.851562 24.476562 Z M 124.851562 24.476562 "/>
<path style="stroke:none;fill-rule:evenodd;fill-opacity:1;" d="M 121.140625 22.945312 C 121.226562 22.945312 121.320312 22.929688 121.402344 22.945312 C 121.726562 23.007812 122.230469 22.757812 122.335938 23.144531 C 122.480469 23.6875 121.910156 23.414062 121.667969 23.53125 C 121.425781 23.648438 121.472656 23.863281 121.46875 24.058594 C 121.457031 24.527344 121.460938 24.996094 121.460938 25.464844 C 121.460938 25.722656 121.410156 25.9375 121.078125 25.925781 C 120.773438 25.914062 120.785156 25.691406 120.785156 25.488281 C 120.777344 25.050781 120.773438 24.609375 120.78125 24.171875 C 120.792969 23.796875 120.796875 23.445312 120.257812 23.496094 C 120.070312 23.511719 119.90625 23.457031 119.90625 23.21875 C 119.90625 22.890625 120.160156 22.957031 120.347656 22.949219 C 120.613281 22.9375 120.875 22.945312 121.140625 22.945312 Z M 121.140625 22.945312 "/>
<path style="stroke:none;fill-rule:evenodd;fill-opacity:1;" d="M 31.976562 47.542969 C 35.214844 47.542969 38.457031 47.566406 41.695312 47.523438 C 42.453125 47.511719 42.648438 47.746094 42.601562 48.464844 C 42.539062 49.371094 42.535156 50.292969 42.601562 51.199219 C 42.65625 51.957031 42.453125 52.203125 41.648438 52.195312 C 37.347656 52.152344 33.046875 52.171875 28.75 52.171875 C 26.570312 52.171875 24.390625 52.140625 22.214844 52.191406 C 21.453125 52.210938 21.257812 51.957031 21.300781 51.242188 C 21.359375 50.304688 21.351562 49.355469 21.300781 48.414062 C 21.265625 47.738281 21.460938 47.515625 22.171875 47.523438 C 25.4375 47.566406 28.710938 47.542969 31.976562 47.542969 Z M 31.976562 47.542969 "/>
<path style="stroke:none;fill-rule:evenodd;fill-opacity:1;" d="M 95.015625 41.128906 C 95.78125 41.128906 96.550781 41.152344 97.316406 41.121094 C 97.816406 41.101562 97.976562 41.277344 97.96875 41.78125 C 97.941406 43.195312 97.988281 44.609375 97.945312 46.023438 C 97.921875 46.664062 98.078125 46.898438 98.765625 46.871094 C 100.148438 46.816406 101.535156 46.875 102.917969 46.847656 C 103.453125 46.835938 103.730469 46.941406 103.714844 47.5625 C 103.679688 49.09375 103.683594 50.628906 103.710938 52.160156 C 103.722656 52.714844 103.511719 52.859375 102.984375 52.851562 C 101.570312 52.820312 100.15625 52.867188 98.742188 52.828125 C 98.140625 52.808594 97.921875 52.960938 97.941406 53.601562 C 97.988281 55.015625 97.933594 56.429688 97.96875 57.84375 C 97.984375 58.4375 97.839844 58.679688 97.195312 58.660156 C 95.691406 58.617188 94.1875 58.625 92.6875 58.65625 C 92.105469 58.671875 91.925781 58.484375 91.941406 57.902344 C 91.980469 56.429688 91.933594 54.957031 91.964844 53.484375 C 91.972656 52.984375 91.820312 52.820312 91.316406 52.832031 C 89.902344 52.859375 88.484375 52.800781 87.074219 52.859375 C 86.347656 52.886719 86.179688 52.625 86.195312 51.953125 C 86.238281 50.570312 86.261719 49.183594 86.191406 47.800781 C 86.148438 46.984375 86.453125 46.808594 87.203125 46.839844 C 88.558594 46.898438 89.914062 46.832031 91.269531 46.867188 C 91.808594 46.882812 91.980469 46.71875 91.964844 46.167969 C 91.929688 44.757812 91.980469 43.339844 91.941406 41.925781 C 91.925781 41.328125 92.074219 41.074219 92.714844 41.117188 C 93.480469 41.167969 94.246094 41.128906 95.015625 41.128906 Z M 95.015625 41.128906 "/>
</g>
</svg>

<svg xmlns="http://www.w3.org/2000/svg" viewBox="0 0 128 128" width="128" height="128"><path style="stroke:none;fill-rule:evenodd;fill-opacity:1" d="M.316 55.504v-9.555c.223-.125.164-.355.207-.547C3.531 32.316 11.734 24.45 24.668 21.31c1.133-.274 2.32-.247 3.422-.653h6.37c.145.274.415.164.63.188 6.422.687 12.203 2.957 17.316 6.914 4.364 3.37 7.84 7.547 10.938 12.058.383.559.566.575.953.004 1.773-2.61 3.707-5.097 5.86-7.41 5.35-5.738 11.706-9.695 19.511-11.144 1.172-.22 2.383-.207 3.52-.61h6.19c.13.23.36.157.556.18 1.843.207 3.664.547 5.453 1.062 13.449 3.864 22.933 16.184 22.136 30.133-.668 11.645-6.562 20.032-16.78 25.418-5.157 2.719-10.75 3.489-16.524 3.375-7.625-.148-14.254-2.77-19.969-7.773-3.965-3.469-7.082-7.64-9.945-12.016-.426-.652-.59-.57-.973.02-1.812 2.789-3.758 5.492-5.96 8-3.868 4.406-8.337 8-13.93 9.96-6.915 2.422-13.965 2.516-20.954.54C12.414 76.707 5.468 70.3 1.723 60.48c-.618-1.617-.875-3.335-1.407-4.976zm31.79 14.684c5.734.238 10.62-1.688 14.765-5.543 4.324-4.024 7.383-9.004 10.488-13.946.188-.297.13-.531-.05-.808-2.645-4.121-5.356-8.203-8.934-11.602-6.883-6.543-14.992-8.742-24.04-5.852C16.778 34.855 12 40.234 10.884 48.22c-1.043 7.445 1.855 13.457 7.812 17.941 3.965 2.988 8.532 4.164 13.41 4.028zm63.347 0c2.246.058 4.457-.09 6.59-.731 7.82-2.332 13.105-7.293 14.578-15.43 1.469-8.105-1.668-14.593-8.39-19.226-7.493-5.168-18.415-4.66-26.055 1.023-5.074 3.774-8.524 8.91-11.875 14.133-.196.3-.145.531.027.805 2.688 4.3 5.379 8.597 8.863 12.324 4.407 4.715 9.704 7.394 16.262 7.102zm32.227 29.007c-.297.942-.535 1.903-.895 2.82-2.234 5.68-10.222 7.204-14.055 2.684-1.304-1.539-1.878-3.386-2.097-5.347-.305-2.743-.297-5.465.734-8.098 1.457-3.695 4.61-5.613 8.754-5.3 3.777.284 6.29 2.538 7.188 6.433.117.5.058 1.047.37 1.5zm-12.618-2.61c.004 1.509.086 3.009.622 4.438.406 1.106 1.086 1.942 2.293 2.254 2.156.559 3.925-.328 4.582-2.472.843-2.77.804-5.59.007-8.364-.515-1.808-1.605-2.601-3.316-2.632-1.828-.036-2.96.746-3.617 2.507-.512 1.38-.563 2.825-.57 4.27zm-17.753-3.14v12.278c0 1.21 0 1.21-1.254 1.21-.618 0-1.239-.042-1.856.012-.691.063-.906-.18-.898-.882.031-3.626.015-7.25.015-10.876 0-2.71.02-5.421-.011-8.132-.008-.618.168-.817.789-.793 1.207.047 2.418.05 3.625-.004.601-.024.883.191 1.125.719 1.886 4.09 3.8 8.164 5.71 12.242.048.097.114.191.31.515V98.68c0-3.86.015-7.72-.016-11.578-.004-.649.144-.891.824-.84.851.062 1.707.035 2.562.008.48-.02.672.117.672.636a4570.62 4570.62 0 0 0 0 19.364c0 .488-.144.68-.652.671a90.154 90.154 0 0 0-3.98.004c-.544.016-.684-.316-.864-.703a3437.438 3437.438 0 0 0-5.64-12.176c-.094-.199-.106-.464-.461-.62zm-65.496 3.7c1.515 1.218 2.117 2.906 2.914 4.472.77 1.52 1.5 3.063 2.273 4.582.262.52.313.774-.426.746a58.648 58.648 0 0 0-3.707 0c-.5.016-.722-.191-.914-.625-.863-1.965-1.765-3.914-2.648-5.87-.485-1.075-1.254-1.731-2.461-1.9-.715-.097-.903.13-.89.837.042 2.238-.009 4.476.03 6.715.012.656-.16.886-.832.847-.941-.058-1.886-.035-2.828-.008-.5.012-.746-.101-.746-.675.02-6.454.012-12.903.016-19.356 0-.281-.074-.644.39-.629 3.145.102 6.313-.332 9.426.367 4.277.961 4.817 4.575 4.047 7.247-.504 1.753-1.86 2.71-3.645 3.25zm-5.84-4.711v2.207c0 .242-.008.492.34.492 1.203.012 2.421.097 3.539-.496 1.011-.54 1.43-1.426 1.28-2.664-.12-1.012-.679-1.641-1.804-1.895a9.13 9.13 0 0 0-1.926-.223c-1.77-.02-1.386-.164-1.43 1.344-.011.41 0 .824 0 1.235zm13.015 4.148c0-3.125.02-6.246-.015-9.371-.008-.703.136-.984.91-.95 2.5.102 5.012-.156 7.504.15 4.734.581 7.175 3.054 7.707 7.85.261 2.329.176 4.653-.66 6.891-1.317 3.512-4.067 5.13-7.602 5.618-2.398.328-4.824.117-7.242.171-.649.016-.602-.386-.602-.812v-9.547zm4.348-.016v4.766c0 2.04 0 2.04 2.078 1.953 2.578-.11 4.223-1.433 4.832-3.953.488-2.008.438-4.031-.062-6.027-.5-1.985-1.813-3.094-3.864-3.325-.726-.082-1.468-.054-2.199-.12-.621-.06-.809.18-.797.796.035 1.969.012 3.942.012 5.91zm-25.84 10.375c-2.367 0-2.367 0-3.004-2.238-.508-1.781-.508-1.781-2.363-1.781-1.477 0-2.95.027-4.422-.012-.547-.015-.777.168-.906.692-.223.914-.563 1.8-.785 2.714-.125.508-.383.649-.871.633a40.27 40.27 0 0 0-2.915 0c-.66.028-.722-.183-.542-.77 1.472-4.75 2.917-9.507 4.37-14.265.5-1.629 1.024-3.254 1.493-4.894.148-.528.351-.774.949-.754 1.504.046 3.008.03 4.508.007.46-.007.664.141.8.594a5006.596 5006.596 0 0 0 5.93 19.324c.176.57.09.813-.562.758-.555-.047-1.117-.008-1.68-.008zm-6.867-15.66-.184.012c-.777 2.672-1.558 5.34-2.336 8.012.137.039.192.07.25.07.942.008 1.883.016 2.825.016 1.804.004 1.808 0 1.312-1.7-.621-2.136-1.246-4.277-1.867-6.41zm46.445 2.684c0-2.328.012-4.656-.011-6.988-.004-.516.12-.739.683-.711.973.043 1.95.05 2.918-.004.652-.035.777.23.773.816-.019 3.922-.011 7.844-.003 11.766 0 .676.02 1.355.09 2.027.187 1.848 1.28 2.781 3.288 2.84 2.012.062 3.149-.809 3.422-2.672a14.01 14.01 0 0 0 .141-2.023c.016-3.922.023-7.844-.012-11.762-.004-.738.125-1.07.953-.996.907.082 1.829.039 2.739.012.48-.016.683.113.68.632-.032 4.48.046 8.965-.083 13.442-.109 3.89-2.644 6.41-6.543 6.844-1.664.187-3.3.093-4.89-.434-2.551-.852-4.008-2.902-4.106-5.895-.07-2.296-.011-4.597-.011-6.894zm25.895-7.688c2.035 0 4.066.02 6.101-.015.575-.008.785.16.746.746a17.403 17.403 0 0 0 0 2.117c.036.563-.191.707-.714.691-1.063-.035-2.122.008-3.184-.02-.496-.015-.734.083-.734.665.023 4.066.02 8.133.004 12.2-.004.542.167.726.707.706 1.058-.027 2.12.024 3.18-.02.6-.019.769.212.741.774-.039.734-.03 1.473-.004 2.207.02.473-.175.61-.62.61-4.126-.012-8.25-.012-12.38 0-.492.003-.69-.153-.671-.657a27.82 27.82 0 0 0-.004-2.21c-.024-.532.152-.735.703-.72 1.09.032 2.18-.007 3.27.012.5.012.66-.175.656-.672-.012-4.093-.012-8.191 0-12.289 0-.46-.164-.613-.618-.605-1.09.023-2.183-.024-3.27.02-.597.023-.788-.196-.737-.762.086-.899-.375-2.043.199-2.633.5-.512 1.625-.129 2.476-.145 1.38-.015 2.77 0 4.153 0zm41.883-61.8c-.133.199-.18.265-.223.332-.242.363-.055 1.097-.664 1.086-.54-.012-.403-.684-.594-1.051-.05-.098-.11-.188-.277-.461 0 .504.008.789 0 1.078-.008.195.035.441-.274.457-.312.016-.293-.234-.297-.43-.007-.68-.007-1.355-.003-2.031 0-.23-.036-.496.324-.504.27-.004.504-.015.617.336.144.43.195.91.527 1.324.317-.402.371-.867.492-1.293.102-.347.317-.37.598-.37.356.003.34.253.344.488.004.68.004 1.355-.004 2.035-.004.191.023.445-.281.449-.305 0-.282-.242-.285-.442-.008-.289 0-.574 0-1.003zm-3.712-1.532c.087 0 .18-.015.262 0 .325.063.828-.187.934.2.144.543-.426.27-.668.386-.242.117-.195.332-.2.528-.011.468-.007.937-.007 1.406 0 .258-.05.473-.383.46-.305-.01-.293-.234-.293-.437a36.975 36.975 0 0 1-.004-1.316c.012-.375.016-.727-.523-.676-.188.016-.352-.039-.352-.277 0-.328.254-.262.442-.27.265-.012.527-.004.793-.004zm0 0"/><path style="stroke:none;fill-rule:evenodd;fill-opacity:1" d="M31.977 47.543c3.238 0 6.48.023 9.718-.02.758-.011.953.223.907.942a19.358 19.358 0 0 0 0 2.734c.054.758-.149 1.004-.954.996-4.3-.043-8.601-.023-12.898-.023-2.18 0-4.36-.031-6.535.02-.762.019-.957-.235-.914-.95.058-.937.05-1.887 0-2.828-.035-.676.16-.898.87-.89 3.267.042 6.54.019 9.806.019zm63.039-6.414c.765 0 1.535.023 2.3-.008.5-.02.66.156.653.66-.028 1.414.02 2.828-.024 4.242-.023.641.133.875.82.848 1.383-.055 2.77.004 4.153-.023.535-.012.812.093.797.715a112.75 112.75 0 0 0-.004 4.597c.012.555-.2.7-.727.692-1.414-.032-2.828.015-4.242-.024-.601-.02-.82.133-.8.774.046 1.414-.008 2.828.027 4.242.015.593-.13.836-.774.816a91.282 91.282 0 0 0-4.507-.004c-.583.016-.762-.172-.747-.754.04-1.472-.007-2.945.024-4.418.008-.5-.145-.664-.649-.652-1.414.027-2.832-.031-4.242.027-.726.028-.894-.234-.879-.906.043-1.383.067-2.77-.004-4.152-.043-.817.262-.992 1.012-.961 1.356.058 2.711-.008 4.067.027.539.016.71-.148.695-.699-.035-1.41.015-2.828-.024-4.242-.015-.598.133-.852.774-.809.765.051 1.531.012 2.3.012zm0 0"/></svg>
